icons/svg/xing.svg

﻿<?xml version="1.0" encoding="utf-8"?>
<!DOCTYPE svg PUBLIC "-//W3C//DTD SVG 1.1//EN" "http://www.w3.org/Graphics/SVG/1.1/DTD/svg11.dtd">
<svg xmlns="http://www.w3.org/2000/svg" xmlns:xlink="http://www.w3.org/1999/xlink" version="1.1" baseProfile="full" width="24" height="24" viewBox="0 0 24.00 24.00" enable-background="new 0 0 24.00 24.00" xml:space="preserve">
	<path fill="#000000" fill-opacity="1" stroke-width="0.2" stroke-linejoin="round" d="M 17.6663,2.0025C 17.2362,2.0025 17.0512,2.27 16.895,2.54875C 16.895,2.54875 10.6787,13.5687 10.4788,13.9312L 14.575,21.45C 14.7163,21.7087 14.9413,22.0025 15.3813,22.0025L 18.2613,22.0025C 18.4375,22.0025 18.5688,21.9338 18.6425,21.8162C 18.7212,21.6937 18.7212,21.5288 18.6375,21.3675L 14.57,13.9213L 20.9575,2.6275C 21.04,2.47125 21.04,2.305 20.9663,2.1825C 20.8936,2.065 20.7563,2.0025 20.5811,2.0025M 5.55125,5.9475C 5.37625,5.9475 5.23,6.01125 5.15625,6.1325C 5.07875,6.255 5.0925,6.41125 5.17625,6.5725L 7.12375,9.96625L 4.0575,15.3713C 3.98,15.5325 3.985,15.6938 4.0575,15.815C 4.13125,15.9375 4.2625,16.015 4.43375,16.015L 7.31875,16.015C 7.75375,16.015 7.95875,15.7225 8.105,15.4538C 8.105,15.4538 11.1038,10.1563 11.2212,9.95125L 9.23875,6.48875C 9.09625,6.235 8.8775,5.9475 8.4325,5.9475"/>
</svg>

<svg xmlns="http://www.w3.org/2000/svg" version="1.1" baseProfile="full" width="24" height="24" viewBox="0 0 24.00 24.00" xml:space="preserve"><path fill="#000" fill-opacity="1" stroke-width=".2" stroke-linejoin="round" d="M17.666 2.002c-.43 0-.615.268-.77.547 0 0-6.217 11.02-6.417 11.38l4.095 7.52c.14.26.366.553.806.553h2.88c.177 0 .31-.07.382-.187.08-.122.08-.287-.005-.448L14.57 13.92l6.387-11.293c.083-.156.083-.322.01-.444-.073-.118-.21-.18-.386-.18M5.55 5.947c-.174 0-.32.064-.394.186-.077.122-.063.278.02.44l1.948 3.393-3.066 5.405c-.078.163-.073.324 0 .445.073.123.205.2.376.2H7.32c.434 0 .64-.293.785-.56L11.22 9.95 9.24 6.49c-.144-.255-.363-.543-.808-.543"/></svg>
